X:1
T:Jenny get Your Hoe Cake Done
T:Jenny get Your Hoe Cake Done
T:Joel Walker Sweeney (1813-1860)
C:Joel Walker Sweeney (1813-1860)
L:1/8
M:4/4
K:G
V:1 treble 
V:1
"^Verse" D2 | D2 D2 F2 A2 | c2 c2 c2 (AB) | c2 A2 A2 F2 | G2 A2 B2 B2 | c2 A2 A2 F2 | G2 A2 B2 B2 | %7
 cc A2 A2 F2 | D2 D2 F2 F2 | GGGG A2 F2 | D2 E2 F2 A2 | GGGG A2 F2 | D4 z4 || %13
"^Instrumental break" BAGG A2 F2 | D2 F2 [FA]2 [FAc]2 | Bd cA [B,G]2 [A,F]2 [G,G]4 z4 || %16

